!!!ONR: No. 8
!! From Harold Courlander, "Haiti Singing"
!! Chapel Hill: University of North Carolina Press, 1939
!! Copyright University of North Carolina Press
!!!ENC: D. Huron
**kern
*clefG2
*k[]
*M2/4
=1-
4r
8cc
8gg
=2
2gg
=3
8gg
8aa
8gg
8gg
=4
8ee
[4.gg
=5
4gg]
8ee
8ee
=6
4cc
[4cc
=7
4cc]
8ee
8gg
=8
2aa
=9
8gg
8gg
8ff
8ee
=10
8dd
8ff
[4ff
=11
4ff]
8dd
8dd
=12
4b
[4b
=13
8b]
8gg
8gg
8gg
=14
12ff
12ff
[12ee
4ee]
=15
8ee
8dd
8cc
8b
=16
12a
12cc
[12dd
4dd_
=17
4dd]
8dd
8dd
=18
4g
[4g
=19
2g]
==
*-
